resources/haticons/SVG/google-plus2.svg

<!-- Generated by IcoMoon.io -->
<svg version="1.1" xmlns="http://www.w3.org/2000/svg" width="24" height="24" viewBox="0 0 24 24">
<title>google-plus2</title>
<path d="M21.75 0h-19.5c-1.237 0-2.25 1.013-2.25 2.25v19.5c0 1.237 1.013 2.25 2.25 2.25h19.5c1.237 0 2.25-1.013 2.25-2.25v-19.5c0-1.237-1.013-2.25-2.25-2.25zM9 18c-3.319 0-6-2.681-6-6s2.681-6 6-6c1.622 0 2.977 0.591 4.022 1.57l-1.631 1.566c-0.445-0.427-1.223-0.923-2.391-0.923-2.048 0-3.722 1.697-3.722 3.787s1.673 3.788 3.722 3.788c2.377 0 3.267-1.706 3.403-2.588h-3.403v-2.058h5.667c0.052 0.3 0.094 0.6 0.094 0.994 0 3.431-2.297 5.864-5.761 5.864zM21 12h-1.5v1.5h-1.5v-1.5h-1.5v-1.5h1.5v-1.5h1.5v1.5h1.5v1.5z"></path>
</svg>

<svg xmlns="http://www.w3.org/2000/svg" width="24" height="24"><path d="M21.75 0H2.25A2.257 2.257 0 0 0 0 2.25v19.5A2.257 2.257 0 0 0 2.25 24h19.5A2.257 2.257 0 0 0 24 21.75V2.25A2.257 2.257 0 0 0 21.75 0zM9 18c-3.319 0-6-2.681-6-6s2.681-6 6-6c1.622 0 2.977.591 4.022 1.57l-1.631 1.566c-.445-.427-1.223-.923-2.391-.923-2.048 0-3.722 1.697-3.722 3.787S6.951 15.788 9 15.788c2.377 0 3.267-1.706 3.403-2.588H9v-2.058h5.667c.052.3.094.6.094.994C14.761 15.567 12.464 18 9 18zm12-6h-1.5v1.5H18V12h-1.5v-1.5H18V9h1.5v1.5H21V12z"/></svg>
